assets/icon/walkingMan.svg

<?xml version="1.0" encoding="UTF-8" standalone="no"?>
<svg
   id="Icons_Walk"
   overflow="hidden"
   version="1.1"
   viewBox="0 0 19.548058 30"
   sodipodi:docname="walkingMan.svg"
   width="19.548058"
   height="30"
   inkscape:version="1.1 (c68e22c387, 2021-05-23)"
   xmlns:inkscape="http://www.inkscape.org/namespaces/inkscape"
   xmlns:sodipodi="http://sodipodi.sourceforge.net/DTD/sodipodi-0.dtd"
   xmlns="http://www.w3.org/2000/svg"
   xmlns:svg="http://www.w3.org/2000/svg">
  <defs
     id="defs11" />
  <sodipodi:namedview
     id="namedview9"
     pagecolor="#ffffff"
     bordercolor="#666666"
     borderopacity="1.0"
     inkscape:pageshadow="2"
     inkscape:pageopacity="0.0"
     inkscape:pagecheckerboard="0"
     showgrid="false"
     fit-margin-top="0"
     fit-margin-left="0"
     fit-margin-right="0"
     fit-margin-bottom="0"
     inkscape:zoom="7.7083333"
     inkscape:cx="27.956757"
     inkscape:cy="43.005405"
     inkscape:window-width="1920"
     inkscape:window-height="1013"
     inkscape:window-x="-9"
     inkscape:window-y="-9"
     inkscape:window-maximized="1"
     inkscape:current-layer="Icons_Walk" />
  <g
     id="g6"
     transform="matrix(0.34883721,0,0,0.34883721,-6.9672207,-1.744186)">
    <circle
       cx="53"
       cy="13"
       r="8"
       id="circle2" />
    <path
       d="M 73.3,44.2 63,40.8 c 0,0 -5.7,-13.2 -5.9,-13.6 -1.4,-2.5 -4,-4.2 -7,-4.2 -1.2,0 -2.4,0.3 -3.4,0.8 l -14,5.5 c -1,0.4 -1.8,1.2 -2.2,2.2 l -5,12 c -0.8,2 0.1,4.4 2.2,5.2 0.5,0.2 1,0.3 1.5,0.3 1.6,0 3.1,-0.9 3.7,-2.5 L 37,36.1 41.2,34.5 34.3,68.2 20.9,84.5 c -1.4,1.7 -1.2,4.2 0.5,5.6 0.7,0.6 1.6,0.9 2.5,0.9 1.2,0 2.3,-0.5 3.1,-1.5 l 14,-17 c 0.4,-0.5 0.7,-1.1 0.8,-1.7 L 44.2,59.2 55,67 v 20 c 0,2.2 1.8,4 4,4 2.2,0 4,-1.8 4,-4 V 65 c 0,-1.3 -0.6,-2.5 -1.6,-3.2 l -9.7,-7.1 2.7,-13.5 1.9,4.4 c 0.5,1 1.3,1.8 2.4,2.2 l 12,4 c 0.4,0.1 0.8,0.2 1.3,0.2 1.7,0 3.2,-1.1 3.8,-2.7 0.7,-2.1 -0.4,-4.4 -2.5,-5.1 z"
       id="path4" />
  </g>
</svg>

<?xml version="1.0" ?><svg id="Icons_Walk" overflow="hidden" version="1.1" viewBox="0 0 96 96" xmlns="http://www.w3.org/2000/svg" xmlns:xlink="http://www.w3.org/1999/xlink"><g><circle cx="53" cy="13" r="8"/><path d=" M 73.3 44.2 L 63 40.8 C 63 40.8 57.3 27.6 57.1 27.2 C 55.7 24.7 53.1 23 50.1 23 C 48.9 23 47.7 23.3 46.7 23.8 L 32.7 29.3 C 31.7 29.7 30.9 30.5 30.5 31.5 L 25.5 43.5 C 24.7 45.5 25.6 47.9 27.7 48.7 C 28.2 48.9 28.7 49 29.2 49 C 30.8 49 32.3 48.1 32.9 46.5 L 37 36.1 L 41.2 34.5 L 34.3 68.2 L 20.9 84.5 C 19.5 86.2 19.7 88.7 21.4 90.1 C 22.1 90.7 23 91 23.9 91 C 25.1 91 26.2 90.5 27 89.5 L 41 72.5 C 41.4 72 41.7 71.4 41.8 70.8 L 44.2 59.2 L 55 67 L 55 87 C 55 89.2 56.8 91 59 91 C 61.2 91 63 89.2 63 87 L 63 65 C 63 63.7 62.4 62.5 61.4 61.8 L 51.7 54.7 L 54.4 41.2 L 56.3 45.6 C 56.8 46.6 57.6 47.4 58.7 47.8 L 70.7 51.8 C 71.1 51.9 71.5 52 72 52 C 73.7 52 75.2 50.9 75.8 49.3 C 76.5 47.2 75.4 44.9 73.3 44.2 Z"/></g></svg>
